X:1
T:Title
%%score ( 1 2 ) { 3 | 4 }
L:1/8
Q:1/4=155
M:6/4
K:Ab
V:1 treble nm="Grand Piano, Soprano"
V:2 treble 
V:3 bass nm="Choir Pad, The Walk to Emmaus"
V:4 bass 
V:1
 [CE]2 [CE]2 [CE]2 [DF]2 E2 A2 | [DB]2 [Ec]4- [Ec]2 [EA]4 | [EB]2 [Ec]4- [Ec]2 [Fd]4 | %3
w: By~E.~A.~Riddle * * * * *|||
 [Ec]2 [EB]4- [EB]4- [EB]3/2 z/ | [EB]2 [Ec]2 [Ec]2 [Ec]2 B2 A2 | [DF]2 [CE]4- [CE]2 [CA]4 | %6
w: |||
 [Ec]2 B4 F2 G4 | F2 E4- E4- E3/2 z/ | [EG]2 [EB]2 [Ed]2 [Ed]2 [Ec]4 | [DB]2 [CA]4- [CA]2 E4 | %10
w: ||||
 [EG]2 [EB]4- [EB]2 c4 | B2 [FA]4- [FA]4- [FA]3/2 z/ | [_GA]2 [FA]2 [FA]2 [FA]2 [FB]4 | %13
w: |||
 [Fc]2 [Fd]4- [Fd]2 [DF]4 | [DF]2 C4- [CA-]>A A4 | G2 [CA]4- [CA]4- [CA]3/2 z/ | %16
w: |||
 E2 E2 [EG]2 [EB]2 d2 c2 | [DB]2 [CA]4- [CA]2 [CE]4 | [Ec]2 [EB]4- [EB]2 B2 c2 | %19
w: |||
 [F=d]2 [Ge]4- [Ge]4- [Ge]3/2 z/ | [Ge]2 e2- [Ee]2 [Ed]2 [Ec]2 [Ed]2 | [Ec]2 [FB]4- [FB]2 [FA]4 | %22
w: |||
 z [CE]- [CE]3 [EA]- [EA][EA]- [EA]3 [EG]- | [EG][EA]- [EA]4- [EA]6- | [EA]6 z6 |] %25
w: |||
V:2
 z6 z2 C4 | x12 | x12 | x12 | z6 z2 E4 | x12 | z2 =D4- D3/2 z/ D4- | D6 z6 | x12 | x12 | %10
 z6 z2 =E4- | E6 z6 | x12 | x12 | z2 E4 z2 D4- | D6 z6 | z6 z2 E4 | x12 | z6 z2 =D4 | x12 | %20
 z2 .A4 z6 | x12 | x12 | x12 | x12 |] %25
V:3
 A,2 A,2 A,2 A,2 A,4 | A,2 A,4- A,2 C4 | G,2 A,4- A,3/2 z/ A,4- | A,2 G,4- G,4- G,3/2 z/ | %4
 G,2 A,2 A,2 A,2 G,2 A,2 | A,2 A,4- A,2 A,4 | A,2 F,4- F,2 B,4 | A,2 G,4- G,4- G,3/2 z/ | %8
 B,2 G,2 G,2 G,2 A,4 | G,2 A,4- A,2 C4 | B,2 G,4- G,2 G,4 | C2 C4- C4- C3/2 z/ | %12
 C2 D2 D2 D2[K:bass] B,4 | =A,2 B,4- B,2 _A,4 | A,2 A,4- A,2 B,4- | B,2 A,4- A,4- A,3/2 z/ | %16
 G,2 G,2 B,2 G,2 G,4 | G,2 A,4- A,2 A,4 | A,2 G,4- G,2 B,4- | B,2 B,4- B,4- B,3/2 z/ | %20
 D2 C4 B,2 A,2 G,2 | A,2 A,4- A,2 A,4 | z A,- A,3[K:treble] C- CD- D3 D- | DC- C4- C6- | C6 z6 |] %25
V:4
 A,,2 A,,2 A,,2 A,,2 A,,4 | A,,2 A,,4- A,,2 A,,4 | .E,6 z6 | z2 E,4- E,4- E,3/2 z/ | %4
 E,2 A,,2 A,,2 A,,2 B,,2 C,2 | D,2 A,,4- A,,2 A,,4 | A,,2 B,,4- B,,2 B,,4- | %7
 B,,2 E,4- E,4- E,3/2 z/ | E,2 E,2 E,2 E,2 E,4 | E,2 A,,4- A,,2 A,,4 | E,2 E,4- E,2 C,4- | %11
 C,2 F,4- F,4- F,3/2 z/ | E,2 D,2 D,2 D,2 D,4 | C,2 B,,4- B,,2 D,4 | D,2 E,4- E,2 E,4- | %15
 E,2 A,,4- A,,4- A,,3/2 z/ | E,2 E,2 E,2 E,2 E,4 | E,2 A,,4- A,,2 A,,4 | A,,2 B,,4- B,,2 B,,4- | %19
 B,,2 E,4- E,4- E,3/2 z/ | E,2 A,,4 A,,2 A,,2 B,,2 | C,2 D,4- D,2 D,4 | %22
 z E,- E,4- E,/ z/ E,- E,3 E,- | E,A,,- A,,4- A,,6- | A,,6 z6 |] %25

